X:373
T:Waiting for a Partner
R:jig 32
C:Trad arr. P J Headford
M:6/8
L:1/8
Q:1/8=140
K:D
F2F FED|A2A A2F|G2G GFE|B2B B3|
c2B c2d|e2c B2A|d2c d2e|fed cBA|!
F2F FED|A2A A2F|G2G GFE|B2B B2c|
ddd dcB|AAA AGF|EFG ABc|dAB cde||!
f3 f3|fed A3|dcd e2d|c2=c B3|
g3 g3|gfe B3|c2B c2d|e2c d2e|!
f3 f3|fed A3|dcd e2d|c2=c B3|
ggg gfe|ddd dcB|A3 c3|d3 A3|]

